img/hotel.svg

<svg viewBox="0 0 50 50" xmlns="http://www.w3.org/2000/svg"><g fill="none"><path d="m21.1 42.967a1.865 1.865 0 0 0 1.841-1.61h-3.686a1.866 1.866 0 0 0 1.845 1.61z"/><path d="m23.17 8.076h3.66v8.288h-3.66z"/><path d="m32.01 17.364h-14.02a1.965 1.965 0 0 0 -1.962 1.963v19.073a1.957 1.957 0 0 0 1.955 1.955h14.034a1.957 1.957 0 0 0 1.955-1.955v-19.073a1.965 1.965 0 0 0 -1.962-1.963zm-2.217 4.565h-9.918a.5.5 0 0 1 0-1h9.918a.5.5 0 0 1 0 1z"/><path d="m28.571 42.967a1.866 1.866 0 0 0 1.842-1.61h-3.683a1.865 1.865 0 0 0 1.841 1.61z"/></g><path d="m32.01 16.364h-4.18v-8.288h1.963a.5.5 0 1 0 0-1h-9.918a.5.5 0 1 0 0 1h2.3v8.288h-4.185a2.966 2.966 0 0 0 -2.962 2.963v19.073a2.958 2.958 0 0 0 2.955 2.955h.272a2.852 2.852 0 0 0 5.683 0h1.792a2.852 2.852 0 0 0 5.683 0h.6a2.958 2.958 0 0 0 2.959-2.955v-19.073a2.966 2.966 0 0 0 -2.962-2.963zm-8.84-8.288h3.66v8.288h-3.66zm-2.07 34.891a1.866 1.866 0 0 1 -1.842-1.61h3.683a1.865 1.865 0 0 1 -1.841 1.61zm7.474 0a1.865 1.865 0 0 1 -1.841-1.61h3.683a1.866 1.866 0 0 1 -1.845 1.61zm5.4-4.565a1.957 1.957 0 0 1 -1.955 1.955h-14.036a1.957 1.957 0 0 1 -1.955-1.957v-19.073a1.965 1.965 0 0 1 1.962-1.963h14.02a1.965 1.965 0 0 1 1.962 1.963z"/><path d="m29.793 20.929h-9.918a.5.5 0 0 0 0 1h9.918a.5.5 0 0 0 0-1z"/></svg>

<svg xmlns="http://www.w3.org/2000/svg" data-name="Livello 2" viewBox="0 0 50 50" x="0px" y="0px"><title>love-</title><path d="M21.1,42.967a1.865,1.865,0,0,0,1.841-1.61H19.255A1.866,1.866,0,0,0,21.1,42.967Z" fill="none"/><rect x="23.17" y="8.076" width="3.66" height="8.288" fill="none"/><path d="M32.01,17.364H17.99a1.965,1.965,0,0,0-1.962,1.963V38.4a1.957,1.957,0,0,0,1.955,1.955H32.017A1.957,1.957,0,0,0,33.972,38.4V19.327A1.965,1.965,0,0,0,32.01,17.364Zm-2.217,4.565H19.875a.5.5,0,0,1,0-1h9.918a.5.5,0,0,1,0,1Z" fill="none"/><path d="M28.571,42.967a1.866,1.866,0,0,0,1.842-1.61H26.73A1.865,1.865,0,0,0,28.571,42.967Z" fill="none"/><path d="M32.01,16.364H27.83V8.076h1.963a.5.5,0,1,0,0-1H19.875a.5.5,0,1,0,0,1h2.3v8.288H17.99a2.966,2.966,0,0,0-2.962,2.963V38.4a2.958,2.958,0,0,0,2.955,2.955h.272a2.852,2.852,0,0,0,5.683,0H25.73a2.852,2.852,0,0,0,5.683,0h.6A2.958,2.958,0,0,0,34.972,38.4V19.327A2.966,2.966,0,0,0,32.01,16.364ZM23.17,8.076h3.66v8.288H23.17ZM21.1,42.967a1.866,1.866,0,0,1-1.842-1.61h3.683A1.865,1.865,0,0,1,21.1,42.967Zm7.474,0a1.865,1.865,0,0,1-1.841-1.61h3.683A1.866,1.866,0,0,1,28.571,42.967Zm5.4-4.565a1.957,1.957,0,0,1-1.955,1.955H17.983A1.957,1.957,0,0,1,16.028,38.4V19.327a1.965,1.965,0,0,1,1.962-1.963H32.01a1.965,1.965,0,0,1,1.962,1.963Z"/><path d="M29.793,20.929H19.875a.5.5,0,0,0,0,1h9.918a.5.5,0,0,0,0-1Z"/></svg>
